X:1530
T:Seonaid's Reel
C:Nigel Gatherer
Z:Nigel Gatherer <gatherer@argonet.co.uk>
R:Reel
M:4/4
L:1/8
K:G
D2|G2 G2 BcdB|cAFE DF F/G/A|G2 DG BcdB|cAFA fdaf|g2 dc BcdB|
cAFE DF F/G/A|GB (3BBB cAdc|B2 G2 G2::Bd|g2 g2 fgaf|gdBA GBdg|
a2 a^g afdf|ed^ce d2 ef|g2 dg fgaf|gdBA GBdg|ecAG FAdc|B2 G2 G2:|
